icons/3_Generic/Health.svg

<svg xmlns="http://www.w3.org/2000/svg" viewBox="0 0 1024 1024">
   <circle cx="512" cy="512" r="512" style="fill:#6750a4"/>
   <path d="M746.98 335.45H634.83v-26.7c0-32.44-26.3-58.74-58.74-58.74H447.92c-32.44 0-58.74 26.3-58.74 58.74v26.7H277.03c-20.65 0-37.38 16.74-37.38 37.38v341.79c0 20.65 16.74 37.38 37.38 37.38h469.96c20.65 0 37.38-16.74 37.38-37.38V372.83c0-20.65-16.74-37.38-37.38-37.38Zm-325.77-26.7c0-14.75 11.95-26.7 26.7-26.7h128.17c14.75 0 26.7 11.95 26.7 26.7v26.7H421.21v-26.7Zm331.11 405.87c0 2.95-2.39 5.34-5.34 5.34H277.02c-2.95 0-5.34-2.39-5.34-5.34V372.83c0-2.95 2.39-5.34 5.34-5.34h469.96c2.95 0 5.34 2.39 5.34 5.34v341.79ZM592.11 543.73c0 8.85-7.17 16.02-16.02 16.02h-48.06v48.06c0 8.85-7.17 16.02-16.02 16.02s-16.02-7.17-16.02-16.02v-48.06h-48.06c-8.85 0-16.02-7.17-16.02-16.02s7.17-16.02 16.02-16.02h48.06v-48.06c0-8.85 7.17-16.02 16.02-16.02s16.02 7.17 16.02 16.02v48.06h48.06c8.85 0 16.02 7.17 16.02 16.02Z" style="fill:#fff"/>
</svg>

<svg width="1024" height="1024" viewBox="0 0 1024 1024" fill="none" xmlns="http://www.w3.org/2000/svg">
<g clip-path="url(#clip0_3_398)">
<path d="M512 1024C794.77 1024 1024 794.77 1024 512C1024 229.23 794.77 0 512 0C229.23 0 0 229.23 0 512C0 794.77 229.23 1024 512 1024Z" fill="#8C72BD"/>
<path d="M746.98 335.45H634.83V308.75C634.83 276.31 608.53 250.01 576.09 250.01H447.92C415.48 250.01 389.18 276.31 389.18 308.75V335.45H277.03C256.38 335.45 239.65 352.19 239.65 372.83V714.62C239.65 735.27 256.39 752 277.03 752H746.99C767.64 752 784.37 735.26 784.37 714.62V372.83C784.37 352.18 767.63 335.45 746.99 335.45H746.98ZM421.21 308.75C421.21 294 433.16 282.05 447.91 282.05H576.08C590.83 282.05 602.78 294 602.78 308.75V335.45H421.21V308.75ZM752.32 714.62C752.32 717.57 749.93 719.96 746.98 719.96H277.02C274.07 719.96 271.68 717.57 271.68 714.62V372.83C271.68 369.88 274.07 367.49 277.02 367.49H746.98C749.93 367.49 752.32 369.88 752.32 372.83V714.62ZM592.11 543.73C592.11 552.58 584.94 559.75 576.09 559.75H528.03V607.81C528.03 616.66 520.86 623.83 512.01 623.83C503.16 623.83 495.99 616.66 495.99 607.81V559.75H447.93C439.08 559.75 431.91 552.58 431.91 543.73C431.91 534.88 439.08 527.71 447.93 527.71H495.99V479.65C495.99 470.8 503.16 463.63 512.01 463.63C520.86 463.63 528.03 470.8 528.03 479.65V527.71H576.09C584.94 527.71 592.11 534.88 592.11 543.73Z" fill="white"/>
</g>
<defs>
<clipPath id="clip0_3_398">
<rect width="1024" height="1024" fill="white"/>
</clipPath>
</defs>
</svg>
